svgs/solid/children.svg

<svg xmlns="http://www.w3.org/2000/svg" viewBox="0 0 640 512"><!--! Font Awesome Pro 6.4.2 by @fontawesome - https://fontawesome.com License - https://fontawesome.com/license (Commercial License) Copyright 2023 Fonticons, Inc. --><path d="M160 0a64 64 0 1 1 0 128A64 64 0 1 1 160 0zM88 480V400H70.2c-10.9 0-18.6-10.7-15.2-21.1l31.1-93.4L57.5 323.3c-10.7 14.1-30.8 16.8-44.8 6.2s-16.8-30.7-6.2-44.8L65.4 207c22.4-29.6 57.5-47 94.6-47s72.2 17.4 94.6 47l58.9 77.7c10.7 14.1 7.9 34.2-6.2 44.8s-34.2 7.9-44.8-6.2l-28.6-37.8L265 378.9c3.5 10.4-4.3 21.1-15.2 21.1H232v80c0 17.7-14.3 32-32 32s-32-14.3-32-32V400H152v80c0 17.7-14.3 32-32 32s-32-14.3-32-32zM480 0a64 64 0 1 1 0 128A64 64 0 1 1 480 0zm-8 384v96c0 17.7-14.3 32-32 32s-32-14.3-32-32V300.5L395.1 321c-9.4 15-29.2 19.4-44.1 10s-19.4-29.2-10-44.1l51.7-82.1c17.6-27.9 48.3-44.9 81.2-44.9h12.3c33 0 63.7 16.9 81.2 44.9L619.1 287c9.4 15 4.9 34.7-10 44.1s-34.7 4.9-44.1-10L552 300.5V480c0 17.7-14.3 32-32 32s-32-14.3-32-32V384H472z"/></svg>

<svg xmlns="http://www.w3.org/2000/svg" viewBox="0 0 640 512"><!--! Font Awesome Pro 6.1.1 by @fontawesome - https://fontawesome.com License - https://fontawesome.com/license (Commercial License) Copyright 2022 Fonticons, Inc. --><path d="M95.1 64C95.1 28.65 124.7 0 159.1 0C195.3 0 223.1 28.65 223.1 64C223.1 99.35 195.3 128 159.1 128C124.7 128 95.1 99.35 95.1 64zM88 480V400H70.2C59.28 400 51.57 389.3 55.02 378.9L86.16 285.5L57.5 323.3C46.82 337.4 26.75 340.2 12.67 329.5C-1.415 318.8-4.175 298.7 6.503 284.7L65.4 206.1C87.84 177.4 122.9 160 160 160C197.2 160 232.2 177.4 254.6 206.1L313.5 284.7C324.2 298.7 321.4 318.8 307.3 329.5C293.3 340.2 273.2 337.4 262.5 323.3L233.9 285.6L264.1 378.9C268.4 389.3 260.7 400 249.8 400H232V480C232 497.7 217.7 512 200 512C182.3 512 168 497.7 168 480V400H152V480C152 497.7 137.7 512 120 512C102.3 512 88 497.7 88 480H88zM416 64C416 28.65 444.7 0 480 0C515.3 0 544 28.65 544 64C544 99.35 515.3 128 480 128C444.7 128 416 99.35 416 64V64zM472 384V480C472 497.7 457.7 512 440 512C422.3 512 408 497.7 408 480V300.5L395.1 321C385.7 336 365.9 340.5 350.1 331.1C336 321.7 331.5 301.9 340.9 286.1L392.6 204.9C410.2 176.9 440.9 159.1 473.8 159.1H486.2C519.2 159.1 549.8 176.9 567.4 204.9L619.1 286.1C628.5 301.9 624 321.7 609 331.1C594.1 340.5 574.3 336 564.9 321L552 300.5V480C552 497.7 537.7 512 520 512C502.3 512 488 497.7 488 480V384L472 384z"/></svg>
